X:1
T:Sit down and sing
T:Thomas Weelkes
T:Sit down and sing
C:Thomas Weelkes
%%score [ 1 2 3 ]
L:1/8
Q:1/4=90
M:4/4
K:G
V:1 treble nm="Soprano 1" snm="S 1"
V:2 treble nm="Soprano 2" snm="S 2"
V:3 treble-8 nm="Tenor" snm="T"
V:1
 z8 | z8 | z4 d4 | A8 | z4 A4 | D8 | z4 G4 | F4 z2 A2 | B3 G d4 | z2 d2 f3 d | a3 f e2 d2 | %11
w: ||Sit|down,|sit|down|and|sing A-|min- tas' joys,|A- min- tas'|joys: his lit- tle|
[M:3/4] c4 B2 | A3 G F2 |[M:4/4] G2 B2 A2 G2 | A2 A2 B2 ^c2 | d2 B2 c2 A2 | B4 A4 | G2 d2 e2 f2 | %18
w: Lambs re-|joice, _ re-|joice To see the|spring; each chir- ping|bird re- cords a|pi- ping|voice, each chir- ping|
 g2 d2 =fedc | B4 z4 | ^c8 | d4 B4 | ^c8 | z8 | z2 d2 d2 d2 | B3 c d2 d2 | d2 ^c2 d2 A2 | %27
w: bird re- cords a pi- ping|voice.|Sweet|be the|fruits||that na- ture|first doth yield, Where|win- ter's cold not|
 B3 B A2 A2 | G2 c2 c2 B2 | c2 G2 B4 | A2 G4 F2 | G8 |[M:3/4][Q:3/4=135] B3 c d2 | e4 d2 | e4 f2 | %35
w: long be- fore hath|kill'd, Where win- ter's|cold not long|be- fore hath|kill'd.|Pan with his|pipe re-|sounds his|
 g3 f e2 | d3 c B2 | d3 c B2 | c4 B2 | A4 A2 | B3 B B2 | d3 d B2 | B2 B2 c2 | B3 c B2 | d3 e d2 | %45
w: roun- de- lays,|roun- de- lays,|Pan with his|pipe re-|sounds his|roun- de- lays,|roun- de- lays,|re- sounds his|roun- de- lays,|roun- de- lays,|
[M:4/4][Q:3/4=90] z2 B2 A3 A | B4 A4 | G2 g2 g2 f2 | g2 G2 B2 A2 | B2 d2 d2 ^c2 | d3 c BA G2- | %51
w: And Flo- ra's|name a-|dorns, And Flo- ra's|name a- dorns with|praise, And Flo- ra's|name a- dorns with praise,|
 G2 G2 G2 F2 | G2 d2 e3 f | g2 f2 e4 | f8 | z4 z2 d2 | d3 c B2 c2 | c2 B2 c2 A2 | G4 z2 d2 | %59
w: _ And Flo- ra's|name a- dorns with|wor- * thy|praise,|Each|liv- ing thing full|glad- ly takes the|spring, Each|
 d3 c B2 G2 | d4 e4 | d3 e f4 | g4 z2 A2 | Bcde f2 ef | g2 G2 A2 A2 | Bcde fg af | g2 gf e4 | %67
w: liv- ing thing full|glad- ly|takes _ the|spring, Both|nymphs and shep- herds plea- sant- *|ly do sing, Both|nymphs and shep- herds plea- * sant- *|ly, plea- sant- ly,|
 z2 ag f2 f2 | g2 g=f e3 d | c2 cB A3 G | F2 G4 F2 | G8 |] %72
w: plea- sant- ly do|sing, plea- sant- ly do|sing, plea- sant- ly do|sing, do _|sing.|
V:2
 z8 | z4 G4 | D8 | z4 d4 | A4 d4 | B4 G4 | B8- | B8 | z2 G2 B3 G | d4 z2 d2 | f3 d g2 f2 | %11
w: |Sit|down,|sit|down and|sing, and|sing|_|A- min- tas'|joys, A-|min- tas' joys: his|
[M:3/4] e4 d2 | c3 B A2 |[M:4/4] B2 d2 d2 e2 | f4 z4 | z2 d2 e2 f2 | g2 d2 =fedc | B2 B2 A4 | %18
w: lit- tle|Lambs _ re-|joice To see the|spring;|each chir- ping|bird re- cords a pi- ping|voice, re- cords|
 B2 G4 F2 | G4 z4 | E8 | A4 G4 | E2 A2 A2 A2 | F3 G A4 | D2 G4 F2 | G2 E2 D4 | z2 G2 G2 F2 | %27
w: a pi- ping|voice.|Sweet|be the|fruits that na- ture|first doth yield,|that na- ture|first doth yield,|Where win- ter's|
 G2 g2 g2 f2 | g2 e2 =f3 f | e2 e2 d2 d2 | c2 B2 A2 A2 | B8 |[M:3/4] G2 G2 G2 | G4 B2 | A4 A2 | %35
w: cold Where win- ter's|cold not long be-|fore hath kill'd, not|long be- fore hath|kill'd.|Pan with his|pipe re-|sounds his|
 G4 G2 | G6 | B3 c d2 | e4 d2 | e4 f2 | g3 g d2 | B3 B G2 | d2 d2 e2 | d3 e d2 | B3 c B2 | %45
w: roun- de-|lays,|Pan with his|pipe re-|sounds his|roun- de- lays,|roun- de- lays,|re- sounds his|roun- de- lays,|roun- de- lays,|
[M:4/4] z2 d2 d3 d | d2 g2 g2 f2 | g2 G2 B2 A2 | GA Bc d4- | d4 z2 g2 | g2 f2 g2 e2 | d4 z2 c2 | %52
w: And Flo- ra's|name And Flo- ra's|name a- dorns with|wor- * thy _ praise,|_ And|Flo- ra's name a-|dorns, And|
 c2 B2 c3 d | e2 d2 d2 ^c2 | d2 A2 A3 G | F2 A2 AG G2- | G2 F2 G2 g2 | g3 =f e2 c2 | e2 d2 c2 B2 | %59
w: Flo- ra's name a-|dorns with wor- thy|praise, Each liv- ing|thing full glad- ly takes|_ the spring, Each|liv- ing thing full|glad- ly takes the|
 A2 d2 d3 c | B2 B2 c3 c | B2 B2 A2 A2 | Bcde f2 ef | g2 G2 A2 A2 | Bcde fg af | g4 z2 dc | %66
w: spring, Each liv- ing|thing full glad- ly|takes the spring, Both|nymphs and shep- herds plea- sant- *|ly do sing, Both|nymphs and shep- herds plea- * sant- *|ly, plea- sant-|
 B2 B2 c2 cB | A4 dc B2 | B2 c2 g=f e2- | ed c2 cB A2 | A2 B2 A4 | B8 |] %72
w: ly do sing, plea- sant-|ly, plea- sant- ly|do sing, plea- sant- ly|_ do sing, plea- sant- ly|do sing, do|sing.|
V:3
 d8 | G8 | z8 | d4 D4- | D4 F4 | G8 | z4 G4 | d2 d2 f3 d | g4 z2 G2 | B3 G d4- | d4 z2 d2 | %11
w: Sit|down,||sit down|_ and|sing|and|sing A- min- tas'|joys, A-|min- tas' joys:|_ his|
[M:3/4] e3 f g2 | c2 A2 d2 |[M:4/4] G2 g2 f2 e2 | d4 z2 e2 | f2 g2 c2 d2 | G2 G2 d2 d2 | %17
w: lit- * tle|Lambs _ re-|joice To see the|spring; each|chir- ping bird re-|cords a pi- ping|
 e2 B2 c2 d2 | GABc d2 d2 | G4 z4 | A8 | F4 G4 | A8 | z2 d2 d2 d2 | B3 c d4 | z2 g2 g2 f2 | %26
w: voice, each chir- ping|bird re- cords a pi- ping|voice.|Sweet|be the|fruits|that na- ture|first doth yield,|Where win- ter's|
 g2 e2 d3 d | G2 G2 d2 d2 | e2 c2 d3 d | c4 G4 | c4 d4 | G8 |[M:3/4] G3 A B2 | c4 B2 | c4 d2 | %35
w: cold not long be-|fore hath kill'd, Where|win- ter's cold not|long be-|fore hath|kill'd.|Pan with his|pipe re-|sounds his|
 e3 d c2 | B3 A G2 | g3 a g2 | c4 g2 | c4 d2 | G3 G G2 | G3 G G2 | G2 G2 c2 | G4 G2 | G6 | %45
w: roun- de- lays,|roun- de- lays,|Pan with his|pipe re-|sounds his|roun- de- lays,|roun- de- lays,|re- sounds his|roun- de-|lays,|
[M:4/4] z2 g2 g2 f2 | g2 G2 d3 c | B2 G2 d4 | z2 g2 g2 f2 | g3 f e2 e2 | d3 d G2 c2 | c2 B2 c2 A2 | %52
w: And Flo- ra's|name a- dorns with|wor- thy praise,|And Flo- ra's|name a- dorns with|wor- thy praise, And|Flo- ra's name a-|
 G4 z2 c2- | c2 d2 A4 | d4 z2 d2 | d3 c B2 G2 | d4 g2 e2 | g4 c2 c2 | c3 B A2 G2 | d4 G2 g2 | %60
w: dorns with|_ wor- thy|praise, Each|liv- ing thing full|glad- ly takes|the spring, Each|liv- ing thing full|glad- ly Each|
 g3 =f e2 c2 | g2 G2 d2 d2 | GA Bc d2 d2 | G4 z2 d2 | G4 z2 d2 | GABc d2 d2 | e2 ed c4 | %67
w: liv- ing thing full|glad- ly takes, full|glad- * ly _ takes the|spring, Both|nymphs and|shep- herds plea- sant- ly do|sing, plea- sant- ly,|
 z2 fe d2 d2 | e2 ed c4- | c4 c4 | d4 D4 | G8 |] %72
w: plea- sant- ly do|sing, plea- sant- ly|_ do|sing, do|sing.|

